assets/black-check.svg

<svg width="17" height="17" viewBox="0 0 17 17" fill="none" xmlns="http://www.w3.org/2000/svg">
    <path d="M12.2617 0.593018H4.4824C3.45081 0.593018 2.46147 1.00282 1.73202 1.73226C1.00257 2.46171 0.592773 3.45105 0.592773 4.48264V12.2619C0.592773 12.7727 0.693382 13.2785 0.888854 13.7504C1.08433 14.2223 1.37083 14.6511 1.73202 15.0123C2.46147 15.7417 3.45081 16.1515 4.4824 16.1515H12.2617C12.7724 16.1515 13.2782 16.0509 13.7502 15.8554C14.2221 15.66 14.6509 15.3735 15.012 15.0123C15.3732 14.6511 15.6597 14.2223 15.8552 13.7504C16.0507 13.2785 16.1513 12.7727 16.1513 12.2619V4.48264C16.1513 3.97185 16.0507 3.46606 15.8552 2.99415C15.6597 2.52224 15.3732 2.09345 15.012 1.73226C14.6509 1.37108 14.2221 1.08457 13.7502 0.889098C13.2782 0.693626 12.7724 0.593018 12.2617 0.593018ZM7.07549 12.4901L2.94729 8.37227L4.31644 7.00312L7.06511 9.75179L9.82415 7.00312L12.5728 4.25445L13.942 5.6236L7.06511 12.5005H7.07549V12.4901Z" fill="#13171B"/>
</svg>

<svg width="17" height="17" fill="none" xmlns="http://www.w3.org/2000/svg"><path d="M12.262.593h-7.78a3.89 3.89 0 0 0-3.89 3.89v7.779a3.89 3.89 0 0 0 3.89 3.89h7.78a3.89 3.89 0 0 0 3.89-3.89v-7.78a3.89 3.89 0 0 0-3.89-3.889ZM7.075 12.49 2.947 8.372l1.37-1.369 2.748 2.749 2.76-2.749 2.748-2.749 1.369 1.37L7.065 12.5h.01v-.01Z" fill="#13171B"/></svg>
